X:1
T:Title
%%score { ( 1 3 ) | ( 2 4 ) }
L:1/8
M:4/4
K:F
V:1 treble nm="Grand Piano"
V:3 treble 
V:2 bass 
V:4 bass 
V:1
 z4 z2[Q:1/4=100] C>C | F>E F>G A>G F>G |[M:3/4] A2 [Ac]2 [Ac]2 |[M:1/4] A>G | %4
[M:4/4] F>E F>G A>G F>G |[M:3/4] A2 A2 [EG]2 |[M:1/4] c2 |[M:4/4] d>d d>d d2 d>d | %8
[M:3/4] c>c c>c c2 |[M:1/4] A>A |[M:9/8] B>BB- B/B/ [Ec]2- [Ec][FA]>G |[M:3/4] F2 F2 F2 | %12
[M:1/4] F>G |[M:4/4] A2 A2 [Ac]2 [Ac]>[Ac] | [GB]6 z2 | [CFA]2 [CFA]2 [FAc]2 [FAc]>[CFA] | %16
 [EG]6 z2 | [Ac]>[Ac] [Ac]>[Ac] [Ac]2 c>c | d>d d>d d2 d>d |[M:9/8] c2 c- c [Ec]2- [Ec][FA]>G | %20
[M:7/8] F-F-F- F- F3 |] %21
V:2
 z4 z2 [F,A,]>[F,A,] | [F,A,C]>[F,G,C] [F,A,C]>[F,B,C] [F,C]>[F,B,C] [F,A,C]>[F,A,E] | %2
[M:3/4] [F,CF]2 [F,F]2 [F,F]2 |[M:1/4] [F,CF]>[F,B,C] | %4
[M:4/4] [F,A,C]>[F,G,C] [F,A,C]>[F,A,C] [F,C]>[F,B,C] [F,A,C]>[F,B,E] | %5
[M:3/4] [F,CF]2 [F,CF]2 [C,C]2 |[M:1/4][K:treble] [A,CF]2 | %7
[M:4/4] [B,F]>[B,F] [B,F]>[B,F] [B,F]2 [B,F]>[B,F] | %8
[M:3/4][K:bass] [F,A,F]>[F,A,F] [F,A,F]>[F,A,F] [F,A,F]2 |[M:1/4] [F,CF]>[F,CF] | %10
[M:9/8] [G,CE]>[G,CE][G,CE]- [G,CE]/[G,E]/ [C,G,]2- [C,G,][C,C]>[C,B,C] | %11
[M:3/4] [F,A,C]2 [F,B,D]2 [F,A,C]2 |[M:1/4] [F,A,]>[F,B,F] | %13
[M:4/4] [F,CF]2 [F,CF]2 [F,F]2 [F,F]>[F,C] | [C,C]2 C,>C, C,2 C,>C, | F,2 F,2 F,2 F,>F, | %16
 z4 C2 z2 | [F,F]>[F,F] [F,F]>[F,F] [F,F]2 [F,A,F]>[F,A,F] | %18
 [B,F]>[B,F] [B,F]>[B,F] [B,F]2 [B,F]>[B,F] | %19
[M:9/8][K:bass] [F,A,F]2 [F,A,F]- [F,A,F] [C,G,]2- [C,G,][C,C]>[C,B,C] |[M:7/8] [A,C]2 z z z z2 |] %21
V:3
 x8 | x8 |[M:3/4] x6 |[M:1/4] x2 |[M:4/4] x8 |[M:3/4] x6 |[M:1/4] x2 |[M:4/4] x8 |[M:3/4] x6 | %9
[M:1/4] x2 |[M:9/8] x9 |[M:3/4] x6 |[M:1/4] x2 |[M:4/4] x8 | z2 C>C C2 [CGB]>[CGB] | x8 | %16
 C2 C>C z2 [CFA]>[CGB] | x8 | x8 |[M:9/8] x9 |[M:7/8] z2 D>D C3 |] %21
V:4
 x8 | x8 |[M:3/4] x6 |[M:1/4] x2 |[M:4/4] x8 |[M:3/4] x6 |[M:1/4][K:treble] x2 |[M:4/4] x8 | %8
[M:3/4][K:bass] x6 |[M:1/4] x2 |[M:9/8] x9 |[M:3/4] x6 |[M:1/4] x2 |[M:4/4] x8 | x8 | x8 | %16
 C,2 C,>C, z B, A,>G, | x8 | x8 |[M:9/8][K:bass] x9 |[M:7/8] F,2- [F,-B,]>[F,-B,] [F,A,]3 |] %21

